X:1
T:Title
%%score { ( 1 4 ) | ( 2 3 ) }
L:1/8
Q:1/4=84
M:6/8
K:D
V:1 treble nm="Grand Piano"
V:4 treble 
V:2 bass 
V:3 bass 
V:1
 F=F^F A2 D | E^DE B3 | cBA [EG][DF][CE] | FB^G A3 | F2 F/F/ [EF]<[EF][EF]/[EF]/ | %5
w: C.~Austin~Miles * * * *|||||
 [DF][Fd][Ec] [DB]3 | E2 E/E/ [CE]<[CA][FB] | ccB [A,CA]3 | [A,F] [A,F]2- [A,F-] F2 | %9
w: ||||
 [A,CG] E2 z3 | [CE][CE][DF] [EG][FA][GB] | .[Ac]3[K:bass][K:treble] z3 | FED F A2 | EEF G B2 | %14
w: |||||
 cBA [Fd]2 D/[DE]/ |[M:7/8] [DF][DA]>[CE]- [CE]/<[CF]/ [A,D]2 z |] %16
w: ||
V:2
 [D,A,D][D,^G,D][D,A,D] [F,A,D]2 [F,A,] | [G,B,][G,B,][G,B,][K:treble] [G,B,E]3 | %2
 [A,EG][A,DG][A,CF][K:bass] [A,,A,][A,,A,][A,,A,] | .A,3 z3 | %4
 [D,A,D]2 [D,A,D]/[D,A,D]/ [C,^A,]<[C,A,][C,A,]/[C,A,]/ | [B,,B,][B,,B,][F,^A,] [B,,B,]3 | %6
 [E,^G,D]2 [E,G,D]/[E,G,D]/ [A,,A,]<[A,,A,][D,A,] | [E,A,E][E,A,E][E,^G,D] A,,3 | %8
 .D,2 z/ C/ D A,2 | .A,,2 z/ ^D/ E C2 | [A,,A,][A,,A,][A,,A,] [A,,A,]2 [A,,A,] | %11
 .[A,,A,]2 [C,A,] [D,A,]3 | [D,A,D][D,G,D][D,F,] [D,A,D] [F,A,D]2 | %13
 [G,B,D][G,B,D][F,B,^D] [E,B,E][K:treble] [G,B,E]2 | %14
 [A,EG][A,DG][A,CG][K:bass] [D,A,]2 [B,,^G,]/[B,,G,]/ | %15
[M:7/8] [A,,A,][A,,F,]>[A,,G,]- [A,,G,]/<[A,,A,]/ [D,F,]2 z |] %16
V:3
 x6 | x3[K:treble] x3 | x3[K:bass] x3 | [D,D]-[D,F,D][D,=F,D] [D,^F,D]3 | x6 | x6 | x6 | x6 | %8
 z D,2- D,3 | z A,,2- A,,3 | x6 | x6 | x6 | x4[K:treble] x2 | x3[K:bass] x3 |[M:7/8] x7 |] %16
V:4
 x6 | x6 | x6 | x6 | x6 | x6 | x6 | x6 | z D2 z3 | z [A,G]2- [A,G]3 | x6 | %11
 z[K:bass] B,,[K:treble][GB] [FA]3 | x6 | x6 | x6 |[M:7/8] x7 |] %16

